X: 23119
T: Laurel Tree, The
R: reel
M: 4/4
K: Adorian
Bd|:eA~A2 e2dc|BdGA Bddg|eA~A2 e2dc|BdGB ABcd|
eA~A2 e2dc|BdGA Bddg|e3f gbaf|gedB A2Bd:|
eaag e/g/edc|BdGA Bdgd|eaag e/g/edc|BdGB ABcd|
eaag e/g/edc|BdGA Bddg|e3f gbaf|gedB A2Bd|
eaag e/g/edc|BdGA Bdgd|eaag a2gc'|bagb a3g|
eaag e/g/edc|BdGA Bdgd|e3f gbaf|gedB A2|

